X: 113205
Q: "Strathspey."
M: C
L: 1/16
K: Gm
|: uF2 |\
vDuG3 vG3uF DG3 G3A | F3GA3B cBAG FA3 |\
ud2 |\
g3a bg3 dg3 bg3 | af3 c3d f3g af3 |
g3a bg3 dg3 bg3 | bagf df3 gg3 {g}g3^f |\
g3a bg3 af3 g3d | fc3 d3f AF3 cA3 |\


